X: 17137
T: Hellebore
R: reel
M: 4/4
K: Cdorian
|:DGBd c2AG|BcBG A2AG|^FGAG F2DF|^FGAG BGAG|
DGBd c2AG|BcBG A2AG|^FGAG F2DF|^FGAF G4:|
|:d3A c2AG|BcBG A3G|^FGAG F2DF|^FGAG BGA2|
d3A c2AG|BcBG A3G|^FGAG F2DF|^FGAF G4:|

